X: 30700
T: Orcadia
R: hornpipe
M: 4/4
K: Gmajor
C|B,>G, (3B,CD G>A G>F|E>D (3EFG A3 B/c/|B>G (3FGA G>E D>B,|C<E B,<D A,3 B,/C/|
B,>G, (3B,CD G>A G>F|E>D (3EFG A3 B/c/|(3BAG (3FGA (3GFE (3DCB,|(3CDE (3DEF G3 c|
B>G (3Bcd B>G (3Bcd|c>A A>=F F<A A B/c/|B>G (3Bcd g2 (3fga|(3gfe (3def g2 (3def|
g2 fa g>e d>B|(3cde (3dcB A2 (3ABc|(3BAG (3FGA (3GFE (3DCB,|(3CDE (3DEF G3:|

